assets/heart-1.svg

<svg xmlns="http://www.w3.org/2000/svg" fill="none" viewBox="0 0 20 19">
  <path fill="#2A2238" d="M9.50415 18.9253c-2-.7639-5.20421-3.5999-7.00421-6-1.500001-2-2.50000104-3.99998-2.50000104-6.49997 0-2.49998 1.01443104-4.21154 2.00000104-5 2.5-2.000007 6-2.000007 7.5 2.5l.00421 4.49999V18.9253Z"/>
  <path fill="#2A2238" d="M9.5 18.9253c2-.7639 5.2042-3.8199 7.0042-6.22 1.5-2 2.5-3.99999 2.5-6.49997 0-2.49999-1.0144-4.21155-2-5.00001C14.5042-.794685 11-.574679 9.5 3.92532V18.9253Z"/>
</svg>

<svg width="20" height="19" viewBox="0 0 20 19" fill="none" xmlns="http://www.w3.org/2000/svg">
<path d="M9.50415 18.9253C7.50415 18.1614 4.29994 15.3254 2.49994 12.9253C0.999939 10.9253 -6.10352e-05 8.92532 -6.10352e-05 6.42533C-6.10352e-05 3.92535 1.01437 2.21379 1.99994 1.42533C4.49994 -0.574677 7.99994 -0.574677 9.49994 3.92533L9.50415 8.42532V18.9253Z" fill="#2A2238"/>
<path d="M9.5 18.9253C11.5 18.1614 14.7042 15.1054 16.5042 12.7053C18.0042 10.7053 19.0042 8.70531 19.0042 6.20533C19.0042 3.70534 17.9898 1.99378 17.0042 1.20532C14.5042 -0.794685 11 -0.574679 9.5 3.92532V8.20531V18.9253Z" fill="#2A2238"/>
</svg>
